assets/images/nodejs.svg

<svg width="24" height="26" viewBox="0 0 24 26" fill="none" xmlns="http://www.w3.org/2000/svg">
<path fill-rule="evenodd" clip-rule="evenodd" d="M24 6.96325L12 0L0 6.96325V19.0369L1.85786 20.1149L5.65411 18.5869C6.70008 18.166 7.38469 17.1558 7.38469 16.0334V6.57243H9.23084V16.0334C9.23084 17.9041 8.08985 19.5876 6.34656 20.2893L3.87371 21.2847L12 26L24 19.0369V6.96325ZM11.0769 10.2454C11.0769 8.21686 12.73 6.57243 14.7692 6.57243H16.9231C18.7924 6.57243 20.3077 8.07982 20.3077 9.93928V10.2454H18.4615V9.93928C18.4615 9.09408 17.7727 8.4089 16.9231 8.4089H14.7692C13.7496 8.4089 12.9231 9.23112 12.9231 10.2454C12.9231 11.2596 13.7496 12.0818 14.7692 12.0818H16.6154C18.6546 12.0818 20.3077 13.7262 20.3077 15.7547C20.3077 17.7833 18.6546 19.4277 16.6154 19.4277H14.7692C12.73 19.4277 11.0769 17.7833 11.0769 15.7547H12.9231C12.9231 16.769 13.7496 17.5912 14.7692 17.5912H16.6154C17.635 17.5912 18.4615 16.769 18.4615 15.7547C18.4615 14.7405 17.635 13.9183 16.6154 13.9183H14.7692C12.73 13.9183 11.0769 12.2739 11.0769 10.2454Z" fill="#626262"/>
</svg>

<svg width="24" height="26" viewBox="0 0 24 26" fill="none" xmlns="http://www.w3.org/2000/svg"><path fill-rule="evenodd" clip-rule="evenodd" d="M24 6.963 12 0 0 6.963v12.074l1.858 1.078 3.796-1.528a2.755 2.755 0 0 0 1.73-2.554v-9.46h1.847v9.46a4.591 4.591 0 0 1-2.884 4.256l-2.473.996L12 26l12-6.963V6.963Zm-12.923 3.282c0-2.028 1.653-3.673 3.692-3.673h2.154a3.376 3.376 0 0 1 3.385 3.367v.306h-1.846V9.94c0-.845-.69-1.53-1.539-1.53H14.77a1.84 1.84 0 0 0-1.846 1.836c0 1.015.827 1.837 1.846 1.837h1.846c2.04 0 3.693 1.644 3.693 3.673 0 2.028-1.653 3.673-3.693 3.673H14.77c-2.039 0-3.692-1.645-3.692-3.673h1.846c0 1.014.827 1.836 1.846 1.836h1.846c1.02 0 1.847-.822 1.847-1.836a1.841 1.841 0 0 0-1.847-1.837H14.77c-2.039 0-3.692-1.644-3.692-3.673Z" fill="#626262"/></svg>
